; generated by PrusaSlicer 2.4.2+arm64 on 2022-12-02 at 00:40:51 UTC


;
;

;
;
; 

; external perimeters extrusion width = 0.45mm
; perimeters extrusion width = 0.45mm
; infill extrusion width = 0.45mm
; solid infill extrusion width = 0.45mm
; top infill extrusion width = 0.40mm
; support material extrusion width = 0.35mm
; first layer extrusion width = 0.42mm

M73 P0 R92
M201 X2500 Y2500 Z400 E5000 ; sets maximum accelerations, mm/sec^2
M203 X180 Y180 Z12 E80 ; sets maximum feedrates, mm / sec
M204 P1250 R1250 T2500 ; sets acceleration (P, T) and retract acceleration (R), mm/sec^2
M205 X8.00 Y8.00 Z2.00 E10.00 ; sets the jerk limits, mm/sec
M205 S0 T0 ; sets the minimum extruding and travel feed rate, mm/sec
M107
;TYPE:Custom
M862.3 P "MINI" ; printer model check
G90 ; use absolute coordinates
M83 ; extruder relative mode
M104 S170 ; set extruder temp for bed leveling
M140 S60 ; set bed temp
M109 R170 ; wait for bed leveling temp
M190 S60 ; wait for bed temp
M204 T1250 ; set travel acceleration
G28 ; home all without mesh bed level
G29 ; mesh bed leveling 
M204 T2500 ; restore travel acceleration
M104 S215 ; set extruder temp
G92 E0
G1 Y-2 X179 F2400
G1 Z3 F720
M109 S215 ; wait for extruder temp

; intro line
G1 X170 F1000
G1 Z0.2 F720
G1 X110 E8 F900
G1 X40 E10 F700
G92 E0

M221 S95 ; set flow
G21 ; set units to millimeters
G90 ; use absolute coordinates
M83 ; use relative distances for extrusion
M900 K0.2 ; Filament gcode LA 1.5
; ; Filament gcode LA 1.0
M107
;LAYER_CHANGE
;Z:0.2
;HEIGHT:0.2
;BEFORE_LAYER_CHANGE
G92 E0.0
;0.2


G1 E-3.2 F4200
G1 Z.2 F720
;AFTER_LAYER_CHANGE
;0.2
G1 Z.4
G1 X51.434 Y21.449 F9000
G1 Z.2 F720
G1 E3.2 F2400
M204 P800
;TYPE:Skirt/Brim
;WIDTH:0.42
G1 F1200
G1 X51.815 Y20.594 E.02934
G1 X53.028 Y18.595 E.07332
G1 X53.932 Y17.48 E.04502
G1 X55.717 Y15.697 E.0791
G1 X56.553 Y15.063 E.03289
G1 X58.851 Y13.711 E.08358
G1 X60.444 Y13.114 E.05335
G1 X63.561 Y12.583 E.09914
G1 X119.417 Y12.492 E1.75134
G1 X124.951 Y12.573 E.17353
G1 X126.594 Y13.269 E.05593
G1 X129.581 Y16.257 E.13247
G1 X130.277 Y17.895 E.0558
G1 X130.356 Y22.86 E.1557
G1 X130.356 Y154.183 E4.11754
G1 X130.277 Y162.086 E.24782
M73 P0 R91
G1 X129.581 Y163.743 E.05636
G1 X126.593 Y166.731 E.13247
G1 X124.912 Y167.427 E.05704
G1 X119.763 Y167.422 E.16147
G1 X116.286 Y166.999 E.1098
G1 X115.041 Y166.669 E.04039
G1 X112.012 Y165.423 E.10271
G1 X111.138 Y164.943 E.03126
G1 X55.245 Y123.887 E2.17446
G1 X54.879 Y123.553 E.01552
G1 X53.881 Y122.353 E.04893
G1 X52.068 Y119.174 E.11477
G1 X51.667 Y118.271 E.03097
G1 X50.952 Y116.145 E.07034
G1 X50.489 Y114.387 E.05697
G1 X49.943 Y111.046 E.10615
G1 X49.727 Y107.348 E.11615
G1 X49.73 Y29.522 E2.44017
G1 X49.942 Y26.789 E.08597
G1 X50.605 Y23.788 E.09633
G1 X51.414 Y21.506 E.07594
M204 P1000
G1 E-2.24 F4200
;WIPE_START
G1 F7200
G1 X51.815 Y20.594 E-.55177
G1 X52.152 Y20.039 E-.36023
;WIPE_END
G1 E-.048 F4200
G1 Z.4 F720
G1 X53.932 Y22.371 F9000
G1 Z.2 F720
G1 E3.2 F2400
M204 P800
G1 F1200
G1 X54.406 Y21.389 E.03418
G1 X55.205 Y20.13 E.04678
G1 X55.901 Y19.277 E.03449
G1 X58.018 Y17.287 E.09111
G1 X60.743 Y15.813 E.09714
G1 X63.802 Y15.237 E.09761
G1 X117.975 Y15.236 E1.69857
G1 X118.739 Y15.215 E.02395
G1 X119.432 Y15.156 E.02182
G1 X120.062 Y15.158 E.01973
G1 X123.721 Y15.312 E.11484
G1 X124.98 Y15.745 E.04175
G1 X126.048 Y16.483 E.0407
G1 X126.573 Y17.049 E.0242
G1 X126.979 Y17.62 E.02198
G1 X127.488 Y18.887 E.04279
G1 X127.692 Y22.279 E.10656
G1 X127.682 Y23.448 E.03666
G1 X127.619 Y24.506 E.03321
G1 X127.614 Y25.357 E.02668
G1 X127.613 Y151.651 E3.95986
G1 X127.617 Y152.501 E.02667
G1 X127.688 Y153.446 E.02969
G1 X127.692 Y154.188 E.02329
G1 X127.676 Y154.913 E.02271
G1 X127.618 Y155.821 E.02853
G1 X127.581 Y160.619 E.15046
G1 X126.988 Y162.366 E.05784
G1 X126.574 Y162.95 E.02245
G1 X126.041 Y163.525 E.02458
G1 X124.704 Y164.383 E.04981
G1 X123.211 Y164.764 E.04829
G1 X119.621 Y164.742 E.11259
G1 X115.992 Y164.181 E.11513
G1 X112.78 Y162.814 E.10947
G1 X109.95 Y160.693 E.11088
G1 X107.55 Y157.678 E.12082
G1 X103.515 Y151.398 E.23402
G1 X98.969 Y145.746 E.22744
G1 X93.779 Y140.556 E.23015
G1 X88.02 Y135.932 E.23155
G1 X81.792 Y131.964 E.23155
G1 X75.183 Y128.705 E.23104
G1 X68.31 Y126.199 E.22938
G1 X60.484 Y124.232 E.25301
G1 X59.565 Y123.759 E.0324
G1 X57.046 Y121.907 E.09802
G1 X56.08 Y120.823 E.04553
G1 X54.4 Y117.884 E.10615
G1 X53.461 Y115.24 E.08798
G1 X53.092 Y113.814 E.04619
G1 X52.575 Y110.632 E.10108
G1 X52.387 Y107.155 E.10916
G1 X52.387 Y29.777 E2.42614
G1 X52.571 Y27.231 E.08003
M73 P1 R91
G1 X53.097 Y24.758 E.0793
G1 X53.667 Y23.176 E.05271
G1 X53.913 Y22.428 E.0247
M204 P1000
G1 X54.27 Y22.544 F9000
M204 P800
G1 F1200
G1 X54.73 Y21.582 E.03346
G1 X55.505 Y20.359 E.04539
G1 X56.169 Y19.543 E.03298
G1 X58.219 Y17.607 E.08841
G1 X60.896 Y16.158 E.09543
G1 X63.819 Y15.614 E.09323
G1 X117.981 Y15.613 E1.6982
G1 X118.76 Y15.591 E.02446
G1 X119.44 Y15.533 E.02137
G1 X120.057 Y15.535 E.01936
G1 X123.626 Y15.678 E.112
G1 X124.789 Y16.071 E.03848
G1 X125.786 Y16.755 E.03791
G1 X126.288 Y17.296 E.02314
G1 X126.658 Y17.819 E.0201
G1 X127.126 Y18.996 E.0397
G1 X127.238 Y21.176 E.06845
G1 X127.315 Y22.284 E.03482
G1 X127.305 Y23.44 E.03625
G1 X127.242 Y24.493 E.03307
G1 X127.236 Y25.355 E.02704
G1 X127.236 Y151.651 E3.95992
G1 X127.24 Y152.516 E.02711
G1 X127.311 Y153.467 E.0299
G1 X127.315 Y154.188 E.0226
G1 X127.299 Y154.892 E.0221
G1 X127.241 Y155.807 E.02874
G1 X127.204 Y160.586 E.14984
G1 X126.665 Y162.171 E.05249
G1 X126.288 Y162.703 E.02044
G1 X125.78 Y163.252 E.02345
G1 X124.579 Y164.026 E.0448
G1 X123.189 Y164.387 E.04505
G1 X119.664 Y164.367 E.11052
G1 X116.118 Y163.825 E.11248
G1 X112.948 Y162.476 E.108
G1 X110.196 Y160.406 E.10798
G1 X107.862 Y157.466 E.11769
G1 X103.822 Y151.178 E.23436
G1 X99.25 Y145.494 E.22871
G1 X94.031 Y140.274 E.23143
G1 X88.24 Y135.625 E.23284
G1 X81.977 Y131.635 E.23285
G1 X75.332 Y128.357 E.23233
G1 X68.421 Y125.838 E.23064
G1 X60.636 Y123.886 E.25163
G1 X59.776 Y123.446 E.0303
G1 X57.286 Y121.615 E.09692
G1 X56.398 Y120.619 E.04183
G1 X54.736 Y117.711 E.105
G1 X53.819 Y115.122 E.08613
G1 X53.463 Y113.745 E.0446
G1 X52.948 Y110.581 E.10049
G1 X52.764 Y107.15 E.10773
G1 X52.764 Y29.784 E2.42577
G1 X52.942 Y27.297 E.07818
G1 X53.456 Y24.873 E.07768
G1 X54.024 Y23.299 E.05249
G1 X54.252 Y22.601 E.023
M204 P1000
G1 X54.609 Y22.717 F9000
M204 P800
G1 F1200
G1 X55.055 Y21.774 E.03272
G1 X55.805 Y20.588 E.044
G1 X56.437 Y19.808 E.03149
G1 X58.421 Y17.926 E.08574
G1 X60.995 Y16.523 E.0919
G1 X63.837 Y15.991 E.09066
G1 X117.986 Y15.99 E1.69781
G1 X118.782 Y15.968 E.02497
G1 X119.447 Y15.91 E.02092
G1 X120.738 Y15.928 E.04048
G1 X121.66 Y15.987 E.02899
G1 X123.535 Y16.045 E.0588
G1 X124.599 Y16.398 E.03517
G1 X125.524 Y17.027 E.03507
G1 X126.002 Y17.543 E.02206
G1 X126.337 Y18.017 E.01819
G1 X126.763 Y19.104 E.0366
G1 X126.861 Y21.198 E.06572
G1 X126.937 Y22.288 E.03428
G1 X126.928 Y23.432 E.03587
G1 X126.865 Y24.481 E.03293
G1 X126.859 Y25.354 E.02739
G1 X126.859 Y151.652 E3.95999
G1 X126.863 Y152.531 E.02755
M73 P1 R90
G1 X126.935 Y153.489 E.03011
G1 X126.938 Y154.187 E.0219
G1 X126.923 Y154.872 E.0215
G1 X126.864 Y155.794 E.02895
G1 X126.827 Y160.553 E.14921
G1 X126.341 Y161.976 E.04716
G1 X126.003 Y162.456 E.01841
G1 X125.52 Y162.977 E.02228
G1 X124.402 Y163.692 E.04161
G1 X123.166 Y164.01 E.04
G1 X119.706 Y163.992 E.10849
G1 X116.243 Y163.469 E.10982
G1 X113.118 Y162.138 E.10652
G1 X110.442 Y160.12 E.10507
G1 X108.174 Y157.255 E.11457
G1 X104.128 Y150.957 E.2347
G1 X99.531 Y145.242 E.22998
G1 X94.283 Y139.993 E.23272
G1 X88.46 Y135.318 E.23413
G1 X82.163 Y131.306 E.23414
G1 X75.48 Y128.01 E.23362
G1 X68.531 Y125.477 E.2319
G1 X60.788 Y123.54 E.25026
G1 X59.987 Y123.133 E.02818
G1 X57.525 Y121.323 E.09581
G1 X56.716 Y120.414 E.03814
G1 X55.072 Y117.539 E.10385
G1 X54.177 Y115.004 E.08429
G1 X53.834 Y113.675 E.04303
G1 X53.322 Y110.531 E.0999
G1 X53.141 Y107.145 E.1063
G1 X53.141 Y29.79 E2.4254
G1 X53.314 Y27.362 E.07633
G1 X53.815 Y24.989 E.07605
G1 X54.381 Y23.421 E.05228
G1 X54.59 Y22.774 E.0213
M204 P1000
G1 X54.948 Y22.889 F9000
M204 P800
G1 F1200
G1 X55.38 Y21.965 E.03198
G1 X56.105 Y20.816 E.04262
G1 X56.707 Y20.072 E.03
G1 X58.625 Y18.244 E.08307
G1 X61.095 Y16.888 E.08834
G1 X63.854 Y16.368 E.08806
G1 X117.991 Y16.367 E1.69742
G1 X118.804 Y16.344 E.02549
G1 X119.454 Y16.287 E.02047
G1 X120.718 Y16.304 E.03961
G1 X121.644 Y16.364 E.02909
G1 X123.445 Y16.412 E.05651
G1 X124.411 Y16.726 E.03185
G1 X125.263 Y17.3 E.03219
G1 X125.717 Y17.79 E.02095
G1 X126.014 Y18.214 E.01626
G1 X126.4 Y19.211 E.0335
G1 X126.485 Y21.218 E.06301
G1 X126.56 Y22.293 E.03376
G1 X126.551 Y23.424 E.03548
G1 X126.488 Y24.468 E.03279
G1 X126.482 Y25.353 E.02775
G1 X126.482 Y151.653 E3.96005
G1 X126.486 Y152.546 E.02799
G1 X126.558 Y153.51 E.03031
G1 X126.561 Y154.186 E.0212
G1 X126.546 Y154.852 E.0209
G1 X126.487 Y155.78 E.02915
G1 X126.451 Y160.519 E.14858
G1 X126.017 Y161.781 E.04185
G1 X125.718 Y162.21 E.01638
G1 X125.26 Y162.704 E.02113
G1 X124.277 Y163.335 E.03662
G1 X123.143 Y163.633 E.03676
G1 X119.748 Y163.617 E.10643
G1 X116.368 Y163.112 E.10716
G1 X113.326 Y161.823 E.1036
G1 X110.689 Y159.833 E.10357
G1 X108.487 Y157.043 E.11145
G1 X104.435 Y150.736 E.23505
G1 X99.812 Y144.99 E.23124
M73 P2 R90
G1 X94.535 Y139.712 E.234
G1 X88.68 Y135.011 E.23542
G1 X82.348 Y130.976 E.23543
G1 X75.628 Y127.663 E.23491
G1 X68.642 Y125.116 E.23317
G1 X60.939 Y123.194 E.24893
G1 X60.197 Y122.82 E.02604
G1 X57.764 Y121.031 E.09469
G1 X57.033 Y120.21 E.03445
G1 X55.408 Y117.367 E.10269
G1 X54.536 Y114.887 E.08243
G1 X54.204 Y113.606 E.04146
G1 X53.696 Y110.48 E.09931
G1 X53.518 Y107.14 E.10487
G1 X53.518 Y29.797 E2.42504
G1 X53.685 Y27.427 E.07449
G1 X54.175 Y25.105 E.07442
G1 X54.738 Y23.542 E.05208
G1 X54.929 Y22.946 E.01962
M204 P1000
G1 X55.287 Y23.061 F9000
M204 P800
G1 F1200
G1 X55.705 Y22.157 E.03122
G1 X56.406 Y21.044 E.04124
G1 X56.976 Y20.336 E.02852
G1 X58.829 Y18.562 E.08041
G1 X61.195 Y17.253 E.08478
G1 X63.872 Y16.745 E.08545
G1 X117.997 Y16.744 E1.69703
G1 X118.826 Y16.721 E.02602
G1 X119.462 Y16.665 E.02001
G1 X120.697 Y16.681 E.03874
G1 X121.628 Y16.74 E.02923
G1 X123.355 Y16.779 E.05418
G1 X124.269 Y17.076 E.03014
G1 X125.001 Y17.572 E.0277
G1 X125.431 Y18.036 E.01986
G1 X125.691 Y18.41 E.01429
G1 X126.037 Y19.315 E.03037
G1 X126.108 Y21.238 E.06034
G1 X126.183 Y22.297 E.03328
G1 X126.174 Y23.416 E.03509
G1 X126.111 Y24.456 E.03265
G1 X126.105 Y25.352 E.02811
G1 X126.105 Y151.654 E3.96012
G1 X126.109 Y152.561 E.02843
G1 X126.182 Y153.531 E.03052
G1 X126.184 Y154.185 E.02049
G1 X126.17 Y154.832 E.02031
G1 X126.11 Y155.767 E.02936
G1 X126.074 Y160.485 E.14794
G1 X125.693 Y161.588 E.03658
G1 X125.432 Y161.963 E.01433
G1 X125 Y162.429 E.01992
G1 X124.1 Y163.001 E.03342
G1 X123.12 Y163.255 E.03175
G1 X119.79 Y163.242 E.10442
G1 X116.492 Y162.755 E.10451
G1 X113.534 Y161.508 E.10066
G1 X110.936 Y159.547 E.10207
G1 X108.799 Y156.832 E.10832
G1 X104.741 Y150.516 E.2354
G1 X100.093 Y144.737 E.23251
G1 X94.787 Y139.431 E.23528
G1 X88.9 Y134.704 E.23671
G1 X82.533 Y130.647 E.23672
G1 X75.777 Y127.316 E.23619
G1 X68.752 Y124.755 E.23444
G1 X61.089 Y122.847 E.24761
G1 X60.407 Y122.506 E.02388
G1 X58.004 Y120.738 E.09356
G1 X57.351 Y120.006 E.03076
G1 X55.744 Y117.195 E.10153
G1 X54.894 Y114.769 E.08057
G1 X54.575 Y113.537 E.03991
G1 X54.07 Y110.43 E.09871
G1 X53.895 Y107.135 E.10344
G1 X53.895 Y29.804 E2.42468
G1 X54.057 Y27.492 E.07266
G1 X54.534 Y25.22 E.07278
G1 X55.095 Y23.663 E.05189
G1 X55.269 Y23.118 E.01795
M204 P1000
G1 X55.627 Y23.231 F9000
M204 P800
G1 F1200
G1 X55.661 Y23.125 E.00348
G1 X56.03 Y22.348 E.02699
G1 X56.707 Y21.271 E.03987
G1 X57.247 Y20.599 E.02705
G1 X59.033 Y18.88 E.07772
G1 X61.351 Y17.598 E.08304
G1 X63.89 Y17.122 E.08099
G1 X118.002 Y17.121 E1.69666
G1 X118.849 Y17.098 E.02656
G1 X119.47 Y17.042 E.01955
G1 X120.677 Y17.057 E.03787
G1 X121.613 Y17.117 E.02939
G1 X123.268 Y17.147 E.05192
G1 X124.083 Y17.405 E.02679
G1 X124.739 Y17.845 E.02477
G1 X125.145 Y18.282 E.01871
G1 X125.367 Y18.605 E.01227
G1 X125.673 Y19.418 E.02724
G1 X125.731 Y21.257 E.05771
G1 X125.806 Y22.301 E.03282
G1 X125.797 Y23.408 E.03469
G1 X125.734 Y24.443 E.03251
G1 X125.728 Y25.351 E.02847
G1 X125.728 Y151.655 E3.96018
G1 X125.732 Y152.576 E.02886
M73 P2 R89
G1 X125.805 Y153.553 E.03072
G1 X125.807 Y154.183 E.01978
G1 X125.793 Y154.813 E.01973
G1 X125.733 Y155.754 E.02957
G1 X125.697 Y160.451 E.14729
G1 X125.368 Y161.395 E.03134
G1 X125.146 Y161.717 E.01227
G1 X124.739 Y162.155 E.01874
G1 X123.974 Y162.644 E.02847
G1 X123.096 Y162.878 E.0285
G1 X119.831 Y162.867 E.10237
G1 X116.617 Y162.399 E.10185
G1 X113.703 Y161.17 E.09916
G1 X111.183 Y159.261 E.0991
G1 X109.112 Y156.621 E.10522
G1 X105.047 Y150.295 E.23576
G1 X100.374 Y144.485 E.23378
G1 X95.039 Y139.15 E.23657
G1 X89.12 Y134.397 E.238
G1 X82.718 Y130.318 E.23801
G1 X75.925 Y126.968 E.23748
G1 X68.862 Y124.394 E.23571
G1 X61.2 Y122.487 E.24757
G1 X60.618 Y122.193 E.02043
G1 X58.243 Y120.446 E.09246
G1 X57.668 Y119.802 E.02707
G1 X56.08 Y117.023 E.10037
G1 X55.253 Y114.653 E.0787
G1 X54.946 Y113.468 E.03837
G1 X54.444 Y110.379 E.09812
G1 X54.272 Y107.13 E.10202
G1 X54.272 Y29.81 E2.42432
G1 X54.429 Y27.556 E.07084
G1 X54.893 Y25.335 E.07114
G1 X55.452 Y23.784 E.05171
G1 X55.609 Y23.288 E.01629
M204 P1000
G1 X55.968 Y23.401 F9000
M204 P800
G1 F1200
G1 X56.007 Y23.274 E.00416
G1 X56.356 Y22.539 E.02553
G1 X57.008 Y21.498 E.0385
G1 X57.518 Y20.861 E.02559
G1 X59.239 Y19.197 E.07506
G1 X61.451 Y17.963 E.07943
G1 X63.907 Y17.499 E.07838
G1 X118.007 Y17.499 E1.69627
G1 X118.871 Y17.474 E.0271
G1 X119.477 Y17.419 E.01908
G1 X120.044 Y17.421 E.01776
G1 X120.657 Y17.434 E.01924
G1 X121.598 Y17.494 E.02958
G1 X123.185 Y17.515 E.04973
G1 X123.899 Y17.735 E.02343
G1 X124.479 Y18.118 E.02179
G1 X124.859 Y18.528 E.01753
G1 X125.042 Y18.797 E.01021
G1 X125.308 Y19.518 E.0241
G1 X125.355 Y21.276 E.05512
G1 X125.429 Y22.306 E.03239
G1 X125.42 Y23.4 E.0343
G1 X125.357 Y24.43 E.03237
G1 X125.351 Y25.35 E.02883
G1 X125.351 Y151.656 E3.96025
G1 X125.355 Y152.591 E.0293
M73 P3 R89
G1 X125.429 Y153.574 E.03092
G1 X125.43 Y154.182 E.01906
G1 X125.416 Y154.793 E.01915
G1 X125.356 Y155.74 E.02977
G1 X125.32 Y160.416 E.14663
G1 X125.043 Y161.203 E.02614
G1 X124.859 Y161.471 E.0102
G1 X124.479 Y161.882 E.01755
G1 X123.846 Y162.289 E.02358
G1 X123.071 Y162.501 E.02521
G1 X119.871 Y162.492 E.10032
G1 X116.74 Y162.042 E.09919
G1 X113.911 Y160.854 E.09619
G1 X111.43 Y158.976 E.09759
G1 X109.424 Y156.41 E.10211
G1 X105.354 Y150.074 E.23612
G1 X100.655 Y144.233 E.23505
G1 X95.291 Y138.869 E.23785
G1 X89.34 Y134.09 E.23929
G1 X82.904 Y129.989 E.23931
G1 X76.074 Y126.621 E.23877
G1 X68.973 Y124.033 E.23698
G1 X61.35 Y122.14 E.24627
G1 X60.828 Y121.88 E.01826
G1 X58.482 Y120.154 E.09132
G1 X57.986 Y119.598 E.02338
G1 X56.416 Y116.851 E.0992
G1 X55.616 Y114.551 E.07636
G1 X55.317 Y113.399 E.03731
G1 X54.818 Y110.329 E.09752
G1 X54.649 Y107.125 E.10059
G1 X54.649 Y29.817 E2.42396
G1 X54.801 Y27.62 E.06902
G1 X55.252 Y25.451 E.06949
G1 X55.81 Y23.904 E.05155
G1 X55.95 Y23.458 E.01465
M204 P1000
G1 X56.309 Y23.57 F9000
M204 P800
G1 F1200
G1 X56.354 Y23.423 E.00482
G1 X56.681 Y22.729 E.02406
G1 X57.31 Y21.725 E.03714
G1 X57.79 Y21.123 E.02413
G1 X59.445 Y19.513 E.07241
G1 X61.552 Y18.327 E.0758
G1 X63.925 Y17.876 E.07574
G1 X118.012 Y17.876 E1.69587
G1 X118.894 Y17.851 E.02766
G1 X119.485 Y17.796 E.01862
G1 X120.041 Y17.798 E.01742
G1 X120.637 Y17.81 E.0187
G1 X121.585 Y17.871 E.02979
G1 X123.104 Y17.885 E.04762
G1 X123.718 Y18.067 E.02008
G1 X124.219 Y18.392 E.01872
G1 X124.572 Y18.773 E.0163
G1 X124.716 Y18.987 E.00809
G1 X124.943 Y19.616 E.02096
G1 X124.978 Y21.293 E.05258
G1 X125.052 Y22.31 E.03199
G1 X125.043 Y23.392 E.0339
G1 X124.98 Y24.417 E.03223
G1 X124.974 Y25.349 E.0292
G1 X124.974 Y151.657 E3.96031
G1 X124.978 Y152.605 E.02974
G1 X125.052 Y153.595 E.03111
G1 X125.053 Y154.18 E.01835
G1 X125.04 Y154.773 E.01859
G1 X124.979 Y155.727 E.02998
G1 X124.943 Y160.381 E.14594
G1 X124.717 Y161.012 E.02101
G1 X124.572 Y161.226 E.00811
