; generated by PrusaSlicer 2.4.2+arm64 on 2022-05-17 at 14:14:45 UTC


;
;

;
;
; 

; external perimeters extrusion width = 0.45mm
; perimeters extrusion width = 0.45mm
; infill extrusion width = 0.45mm
; solid infill extrusion width = 0.45mm
; top infill extrusion width = 0.40mm
; support material extrusion width = 0.35mm
; first layer extrusion width = 0.42mm

; external perimeters extrusion width = 0.45mm
; perimeters extrusion width = 0.45mm
; infill extrusion width = 0.45mm
; solid infill extrusion width = 0.45mm
; top infill extrusion width = 0.40mm
; support material extrusion width = 0.35mm
; first layer extrusion width = 0.42mm

M73 P0 R201
M201 X2500 Y2500 Z400 E5000 ; sets maximum accelerations, mm/sec^2
M203 X180 Y180 Z12 E80 ; sets maximum feedrates, mm / sec
M204 P1250 R1250 T2500 ; sets acceleration (P, T) and retract acceleration (R), mm/sec^2
M205 X8.00 Y8.00 Z2.00 E10.00 ; sets the jerk limits, mm/sec
M205 S0 T0 ; sets the minimum extruding and travel feed rate, mm/sec
M107
;TYPE:Custom
M862.3 P "MINI" ; printer model check
G90 ; use absolute coordinates
M83 ; extruder relative mode
M104 S170 ; set extruder temp for bed leveling
M140 S60 ; set bed temp
M109 R170 ; wait for bed leveling temp
M190 S60 ; wait for bed temp
M204 T1250 ; set travel acceleration
G28 ; home all without mesh bed level
G29 ; mesh bed leveling 
M204 T2500 ; restore travel acceleration
M104 S215 ; set extruder temp
G92 E0
G1 Y-2 X179 F2400
G1 Z3 F720
M109 S215 ; wait for extruder temp

; intro line
G1 X170 F1000
G1 Z0.2 F720
G1 X110 E8 F900
G1 X40 E10 F700
G92 E0

M221 S95 ; set flow
G21 ; set units to millimeters
G90 ; use absolute coordinates
M83 ; use relative distances for extrusion
M900 K0.2 ; Filament gcode LA 1.5
; ; Filament gcode LA 1.0
M107
;LAYER_CHANGE
;Z:0.2
;HEIGHT:0.2
;BEFORE_LAYER_CHANGE
G92 E0.0
;0.2


G1 E-3.2 F4200
G1 Z.2 F720
;AFTER_LAYER_CHANGE
;0.2
G1 Z.4
G1 X16.424 Y52.054 F9000
G1 Z.2 F720
G1 E3.2 F2400
M204 P800
;TYPE:Skirt/Brim
;WIDTH:0.42
G1 F1200
G1 X94.779 Y51.448 E2.45682
G1 X156.081 Y51.448 E1.9221
M73 P0 R200
G1 X157.78 Y51.594 E.05346
G1 X159.747 Y52.116 E.0638
G1 X161.482 Y52.943 E.06028
G1 X162.333 Y53.504 E.03194
G1 X163.21 Y54.219 E.03548
G1 X164.514 Y55.631 E.06028
G1 X165.595 Y57.356 E.06381
G1 X166.33 Y59.253 E.06381
G1 X166.559 Y60.246 E.03194
G1 X166.7 Y61.369 E.03549
G1 X166.692 Y115.849 E1.70819
G1 X166.489 Y117.208 E.04308
G1 X166.047 Y118.712 E.04915
G1 X165.484 Y119.965 E.04308
G1 X164.901 Y120.935 E.03548
G1 X163.932 Y122.168 E.04915
G1 X163.126 Y122.963 E.03548
G1 X162.041 Y123.806 E.04308
G1 X160.684 Y124.589 E.04915
G1 X159.641 Y125.028 E.03548
G1 X158.431 Y125.383 E.03954
G1 X157.316 Y125.578 E.03548
G1 X156.142 Y125.656 E.03688
G1 X94.708 Y125.656 E1.92622
G1 X16.373 Y123.345 E2.45722
G1 X14.762 Y122.649 E.05501
G1 X14.651 Y122.539 E.0049
G1 X13.955 Y120.858 E.05704
G1 X13.955 Y54.541 E2.07932
G1 X14.651 Y52.86 E.05704
G1 X14.762 Y52.75 E.0049
G1 X16.369 Y52.077 E.05463
M204 P1000
G1 E-2.24 F4200
;WIPE_START
G1 F7200
G1 X18.015 Y52.064 E-.912
;WIPE_END
G1 E-.048 F4200
G1 Z.4 F720
G1 X19.97 Y56.857 F9000
G1 Z.2 F720
G1 E3.2 F2400
M204 P800
G1 F1200
G1 X21.482 Y55.867 E.05667
G1 X22.438 Y55.574 E.03133
G1 X23.484 Y55.441 E.03308
G1 X85.009 Y55.441 E1.92905
G1 X86.103 Y55.597 E.03468
G1 X87.077 Y55.917 E.03213
G1 X88.682 Y56.979 E.06034
G1 X89.022 Y56.587 E.01629
G1 X89.489 Y56.138 E.02032
G1 X90.073 Y55.667 E.02353
G1 X90.709 Y55.246 E.0239
G1 X91.382 Y54.887 E.0239
G1 X92.086 Y54.593 E.02394
G1 X92.819 Y54.367 E.02405
G1 X93.635 Y54.2 E.0261
G1 X94.658 Y54.115 E.0322
G1 X156.18 Y54.115 E1.92896
G1 X156.981 Y54.17 E.0252
G1 X157.764 Y54.303 E.02489
G1 X158.513 Y54.507 E.02433
G1 X159.229 Y54.778 E.02403
G1 X159.916 Y55.116 E.02399
G1 X160.567 Y55.518 E.02399
G1 X161.177 Y55.98 E.02399
G1 X161.741 Y56.497 E.02399
G1 X162.252 Y57.066 E.02399
G1 X162.707 Y57.681 E.02399
G1 X163.102 Y58.337 E.02399
G1 X163.433 Y59.027 E.02399
G1 X163.696 Y59.745 E.02399
G1 X163.891 Y60.485 E.02399
G1 X164.013 Y61.24 E.02397
G1 X164.062 Y61.956 E.02251
G1 X164.064 Y115.064 E1.66517
G1 X164.024 Y115.77 E.02215
G1 X163.91 Y116.527 E.02402
G1 X163.721 Y117.28 E.02435
G1 X163.437 Y118.066 E.02619
G1 X163.017 Y118.915 E.0297
G1 X162.511 Y119.702 E.02935
G1 X161.961 Y120.376 E.02725
G1 X161.334 Y120.991 E.02754
G1 X160.781 Y121.436 E.02226
G1 X160.191 Y121.829 E.02223
G1 X159.414 Y122.244 E.0276
G1 X158.705 Y122.533 E.02403
G1 X157.969 Y122.754 E.02409
G1 X157.161 Y122.912 E.02581
G1 X156.112 Y122.993 E.03298
G1 X94.686 Y122.991 E1.92598
G1 X93.853 Y122.933 E.02619
G1 X93.054 Y122.795 E.02541
G1 X92.343 Y122.6 E.02313
G1 X91.641 Y122.335 E.02353
G1 X90.887 Y121.963 E.02635
G1 X90.176 Y121.512 E.02642
G1 X89.561 Y121.03 E.02451
G1 X89.014 Y120.509 E.02367
G1 X88.492 Y119.906 E.025
G1 X88.074 Y119.32 E.02258
G1 X87.87 Y118.972 E.01264
G1 X87.017 Y119.509 E.03159
G1 X86.139 Y119.797 E.02898
G1 X85.173 Y119.945 E.03065
G1 X79.775 Y119.97 E.16924
G1 X23.395 Y119.959 E1.76775
G1 X21.287 Y119.43 E.06815
G1 X19.747 Y118.342 E.05914
G1 X18.679 Y116.829 E.05804
G1 X18.307 Y115.744 E.03597
G1 X18.153 Y114.623 E.03547
G1 X18.153 Y60.837 E1.68644
G1 X18.243 Y59.901 E.02947
G1 X18.506 Y58.98 E.03003
G1 X19.101 Y57.863 E.03967
G1 X19.931 Y56.902 E.03982
M204 P1000
G1 X20.2 Y57.157 F9000
M204 P800
G1 F1200
G1 X21.62 Y56.219 E.05335
G1 X22.503 Y55.946 E.02897
G1 X23.497 Y55.818 E.03143
G1 X84.995 Y55.818 E1.92823
G1 X86.033 Y55.968 E.03288
G1 X86.934 Y56.266 E.02978
G1 X88.371 Y57.226 E.05419
G1 X88.667 Y57.573 E.0143
G1 X89.29 Y56.853 E.02985
G1 X89.744 Y56.416 E.01978
G1 X90.303 Y55.966 E.02247
G1 X90.909 Y55.565 E.0228
G1 X91.535 Y55.231 E.02225
G1 X92.207 Y54.95 E.02282
G1 X92.904 Y54.734 E.02289
G1 X93.678 Y54.575 E.02475
G1 X94.666 Y54.492 E.0311
G1 X156.161 Y54.491 E1.92812
G1 X156.928 Y54.543 E.02411
G1 X157.692 Y54.673 E.0243
G1 X158.404 Y54.868 E.02316
G1 X159.087 Y55.128 E.0229
G1 X159.741 Y55.45 E.02287
G1 X160.361 Y55.834 E.02286
G1 X160.942 Y56.275 E.02287
G1 X161.478 Y56.769 E.02287
G1 X161.965 Y57.311 E.02287
G1 X162.399 Y57.898 E.02287
G1 X162.774 Y58.523 E.02286
G1 X163.089 Y59.181 E.02287
G1 X163.339 Y59.866 E.02287
G1 X163.523 Y60.572 E.02286
G1 X163.64 Y61.291 E.02285
G1 X163.685 Y61.975 E.02149
G1 X163.687 Y115.059 E1.66441
G1 X163.648 Y115.739 E.02136
G1 X163.538 Y116.461 E.02291
G1 X163.358 Y117.179 E.0232
G1 X163.086 Y117.927 E.02496
G1 X162.684 Y118.738 E.02837
G1 X162.2 Y119.489 E.02803
G1 X161.676 Y120.129 E.02592
G1 X161.09 Y120.703 E.02572
G1 X160.564 Y121.127 E.02118
G1 X159.989 Y121.511 E.02168
G1 X159.263 Y121.898 E.02583
G1 X158.587 Y122.175 E.02289
G1 X157.887 Y122.386 E.02293
G1 X157.121 Y122.537 E.02448
G1 X156.105 Y122.616 E.03195
G1 X94.706 Y122.614 E1.92513
G1 X93.888 Y122.558 E.02569
G1 X93.145 Y122.429 E.02364
G1 X92.451 Y122.239 E.02256
G1 X91.783 Y121.986 E.02241
G1 X91.08 Y121.638 E.02457
G1 X90.401 Y121.209 E.0252
G1 X89.801 Y120.739 E.02391
G1 X89.281 Y120.243 E.02253
G1 X88.794 Y119.68 E.02332
G1 X88.387 Y119.108 E.02202
G1 X87.998 Y118.442 E.0242
G1 X86.875 Y119.158 E.04175
G1 X86.065 Y119.427 E.02677
G1 X85.157 Y119.568 E.02882
G1 X79.775 Y119.593 E.16875
G1 X23.419 Y119.581 E1.76699
G1 X21.431 Y119.077 E.06431
G1 X19.992 Y118.053 E.0554
G1 X19.027 Y116.681 E.0526
G1 X18.678 Y115.674 E.03342
G1 X18.53 Y114.61 E.03366
G1 X18.53 Y60.846 E1.68573
G1 X18.617 Y59.956 E.02805
M73 P0 R199
G1 X18.863 Y59.105 E.02777
G1 X19.423 Y58.06 E.03718
G1 X20.161 Y57.202 E.03547
M204 P1000
G1 X20.431 Y57.456 F9000
M204 P800
G1 F1200
G1 X21.759 Y56.571 E.05002
G1 X22.568 Y56.318 E.02658
G1 X23.509 Y56.195 E.02976
G1 X84.981 Y56.195 E1.92741
G1 X85.961 Y56.339 E.03105
G1 X86.79 Y56.616 E.0274
G1 X88.134 Y57.521 E.05081
G1 X88.688 Y58.215 E.02783
G1 X89.153 Y57.579 E.02471
G1 X89.557 Y57.119 E.01917
G1 X89.988 Y56.704 E.01876
G1 X90.532 Y56.265 E.02192
G1 X91.109 Y55.885 E.02167
G1 X91.705 Y55.568 E.02115
G1 X92.328 Y55.308 E.02117
G1 X92.99 Y55.101 E.02175
G1 X93.721 Y54.95 E.02339
G1 X94.69 Y54.869 E.0305
G1 X156.141 Y54.868 E1.92677
G1 X156.892 Y54.919 E.0236
G1 X157.619 Y55.043 E.0231
G1 X158.295 Y55.229 E.022
G1 X158.944 Y55.477 E.02177
G1 X159.565 Y55.784 E.02174
G1 X160.154 Y56.15 E.02174
G1 X160.706 Y56.569 E.02174
G1 X161.216 Y57.04 E.02174
G1 X161.678 Y57.556 E.02174
G1 X162.09 Y58.114 E.02174
G1 X162.446 Y58.709 E.02174
G1 X162.744 Y59.335 E.02174
G1 X162.982 Y59.986 E.02174
G1 X163.156 Y60.658 E.02174
G1 X163.266 Y61.342 E.02173
G1 X163.308 Y61.993 E.02046
G1 X163.31 Y115.053 E1.66366
G1 X163.272 Y115.708 E.02057
G1 X163.167 Y116.395 E.0218
G1 X162.995 Y117.077 E.02205
G1 X162.736 Y117.788 E.02373
G1 X162.351 Y118.56 E.02703
G1 X161.889 Y119.275 E.02671
G1 X161.404 Y119.867 E.02398
G1 X160.846 Y120.415 E.02452
G1 X160.334 Y120.828 E.02061
G1 X159.788 Y121.192 E.02059
G1 X159.11 Y121.553 E.02408
G1 X158.469 Y121.817 E.02175
G1 X157.804 Y122.018 E.02178
G1 X157.08 Y122.162 E.02314
G1 X156.097 Y122.239 E.0309
G1 X94.725 Y122.238 E1.92428
G1 X93.924 Y122.182 E.02518
G1 X93.236 Y122.063 E.0219
G1 X92.576 Y121.883 E.02144
G1 X91.925 Y121.637 E.02184
G1 X91.273 Y121.314 E.0228
G1 X90.626 Y120.907 E.02398
G1 X90.041 Y120.448 E.02331
G1 X89.548 Y119.976 E.02139
G1 X89.096 Y119.454 E.02165
G1 X88.699 Y118.897 E.02147
G1 X88.367 Y118.326 E.02071
G1 X88.168 Y117.882 E.01525
G1 X86.733 Y118.809 E.05356
G1 X85.99 Y119.057 E.02455
G1 X85.14 Y119.191 E.02697
G1 X79.774 Y119.216 E.16825
G1 X23.442 Y119.204 E1.76626
G1 X21.619 Y118.749 E.05893
G1 X20.28 Y117.808 E.05131
G1 X19.374 Y116.53 E.04911
G1 X19.048 Y115.602 E.03084
G1 X18.907 Y114.597 E.03183
G1 X18.907 Y60.855 E1.68502
G1 X18.99 Y60.011 E.02662
G1 X19.219 Y59.23 E.02549
G1 X19.745 Y58.257 E.0347
G1 X20.392 Y57.501 E.03119
M204 P1000
G1 X20.664 Y57.753 F9000
M204 P800
G1 F1200
G1 X21.899 Y56.922 E.04669
G1 X22.634 Y56.689 E.02418
G1 X23.522 Y56.572 E.02807
G1 X84.967 Y56.572 E1.92657
G1 X85.89 Y56.709 E.02926
G1 X86.601 Y56.943 E.02348
G1 X87.897 Y57.816 E.04899
G1 X88.732 Y58.893 E.04271
G1 X89.06 Y58.345 E.02003
G1 X89.442 Y57.821 E.02033
G1 X89.835 Y57.374 E.01865
G1 X90.243 Y56.981 E.01776
G1 X90.747 Y56.575 E.02031
G1 X91.295 Y56.214 E.02056
G1 X91.858 Y55.913 E.02003
G1 X92.465 Y55.659 E.02061
G1 X93.093 Y55.464 E.02063
G1 X93.764 Y55.325 E.02147
G1 X94.713 Y55.245 E.02989
G1 X156.122 Y55.244 E1.92543
G1 X156.857 Y55.294 E.02309
G1 X157.545 Y55.413 E.02189
G1 X158.186 Y55.59 E.02083
G1 X158.8 Y55.825 E.02064
G1 X159.389 Y56.118 E.02062
G1 X159.948 Y56.465 E.02061
G1 X160.47 Y56.864 E.02062
G1 X160.953 Y57.31 E.02062
G1 X161.391 Y57.8 E.02062
G1 X161.78 Y58.33 E.02062
G1 X162.118 Y58.895 E.02061
G1 X162.4 Y59.488 E.02062
G1 X162.624 Y60.107 E.02062
G1 X162.789 Y60.743 E.02061
G1 X162.892 Y61.392 E.02061
G1 X162.932 Y62.011 E.01945
G1 X162.933 Y115.048 E1.66293
G1 X162.896 Y115.677 E.01977
G1 X162.796 Y116.329 E.02068
G1 X162.631 Y116.975 E.0209
G1 X162.385 Y117.649 E.0225
G1 X162.019 Y118.382 E.02569
G1 X161.578 Y119.061 E.02539
G1 X161.119 Y119.62 E.02267
G1 X160.603 Y120.128 E.02271
G1 X160.105 Y120.528 E.02004
G1 X159.587 Y120.873 E.01949
G1 X158.958 Y121.208 E.02235
G1 X158.35 Y121.459 E.02062
G1 X157.72 Y121.65 E.02064
G1 X157.039 Y121.787 E.0218
G1 X156.09 Y121.862 E.02984
G1 X94.744 Y121.861 E1.92345
G1 X93.978 Y121.809 E.02408
G1 X93.326 Y121.697 E.02074
G1 X92.684 Y121.522 E.02086
G1 X92.067 Y121.287 E.0207
G1 X91.449 Y120.981 E.02163
G1 X90.835 Y120.593 E.02278
G1 X90.295 Y120.169 E.02154
G1 X89.815 Y119.71 E.02081
G1 X89.387 Y119.215 E.02053
G1 X89.02 Y118.699 E.01983
G1 X88.698 Y118.145 E.0201
G1 X88.25 Y117.134 E.03469
G1 X87.814 Y117.661 E.02146
G1 X86.589 Y118.459 E.04583
G1 X85.914 Y118.687 E.02233
G1 X85.124 Y118.814 E.0251
G1 X79.774 Y118.839 E.16774
G1 X23.465 Y118.827 E1.76555
G1 X21.804 Y118.419 E.05361
G1 X20.567 Y117.561 E.04721
G1 X19.72 Y116.38 E.04556
G1 X19.411 Y115.495 E.02939
G1 X19.284 Y114.584 E.02885
G1 X19.284 Y60.864 E1.68435
G1 X19.357 Y60.099 E.0241
M73 P1 R199
G1 X19.575 Y59.356 E.02427
G1 X20.067 Y58.454 E.03221
G1 X20.625 Y57.799 E.02699
M204 P1000
G1 X20.898 Y58.05 F9000
M204 P800
G1 F1200
G1 X22.04 Y57.272 E.04335
G1 X22.701 Y57.061 E.02176
G1 X23.534 Y56.949 E.02635
G1 X84.953 Y56.949 E1.92572
G1 X85.819 Y57.08 E.02747
G1 X86.413 Y57.271 E.01957
G1 X87.66 Y58.111 E.04715
G1 X88.234 Y58.865 E.02971
G1 X88.684 Y59.874 E.03464
G1 X89.07 Y59.063 E.02817
G1 X89.37 Y58.56 E.01836
G1 X89.742 Y58.05 E.01978
G1 X90.102 Y57.64 E.01713
G1 X90.486 Y57.27 E.01672
G1 X90.977 Y56.874 E.01976
G1 X91.48 Y56.542 E.01891
G1 X92.012 Y56.257 E.01892
G1 X92.602 Y56.011 E.02003
G1 X93.196 Y55.827 E.0195
G1 X93.807 Y55.7 E.01956
G1 X94.737 Y55.621 E.02928
G1 X156.103 Y55.621 E1.92409
G1 X156.822 Y55.67 E.02258
G1 X157.471 Y55.783 E.02067
G1 X158.076 Y55.951 E.01967
G1 X158.656 Y56.174 E.01951
G1 X159.213 Y56.451 E.01949
G1 X159.74 Y56.78 E.01949
G1 X160.234 Y57.158 E.01949
G1 X160.69 Y57.58 E.01949
G1 X161.103 Y58.044 E.01949
G1 X161.471 Y58.546 E.01949
G1 X161.789 Y59.08 E.01949
G1 X162.055 Y59.642 E.01949
G1 X162.266 Y60.226 E.01949
G1 X162.421 Y60.828 E.01949
G1 X162.518 Y61.442 E.01948
G1 X162.555 Y62.029 E.01843
G1 X162.556 Y115.042 E1.6622
G1 X162.52 Y115.646 E.01896
G1 X162.424 Y116.262 E.01955
G1 X162.269 Y116.872 E.01975
G1 X162.035 Y117.509 E.02126
G1 X161.687 Y118.203 E.02435
G1 X161.268 Y118.846 E.02407
G1 X160.835 Y119.372 E.02137
G1 X160.359 Y119.84 E.02093
G1 X159.889 Y120.219 E.01894
G1 X159.386 Y120.554 E.01893
G1 X158.805 Y120.863 E.02063
G1 X158.231 Y121.101 E.01949
G1 X157.636 Y121.283 E.0195
G1 X156.997 Y121.412 E.02044
G1 X156.082 Y121.485 E.02878
G1 X94.763 Y121.484 E1.92263
G1 X94.032 Y121.436 E.02297
G1 X93.399 Y121.327 E.02013
G1 X92.793 Y121.16 E.01971
G1 X92.21 Y120.938 E.01956
G1 X91.626 Y120.648 E.02045
G1 X91.045 Y120.28 E.02157
G1 X90.549 Y119.89 E.01978
G1 X90.082 Y119.444 E.02024
G1 X89.689 Y118.989 E.01886
G1 X89.333 Y118.488 E.01927
G1 X89.028 Y117.963 E.01904
G1 X88.769 Y117.401 E.0194
G1 X88.57 Y116.835 E.0188
G1 X88.43 Y116.282 E.0179
G1 X87.58 Y117.364 E.04315
G1 X86.404 Y118.129 E.04399
G1 X85.811 Y118.324 E.01957
G1 X85.107 Y118.437 E.02236
G1 X79.774 Y118.462 E.16724
G1 X23.487 Y118.45 E1.76484
G1 X21.988 Y118.087 E.04836
G1 X20.852 Y117.313 E.0431
G1 X20.066 Y116.228 E.04201
G1 X19.781 Y115.423 E.02675
G1 X19.661 Y114.571 E.027
G1 X19.661 Y60.873 E1.68364
G1 X19.731 Y60.154 E.02266
M73 P1 R198
G1 X19.93 Y59.484 E.02192
G1 X20.388 Y58.653 E.02975
G1 X20.859 Y58.096 E.02287
M204 P1000
G1 X21.133 Y58.346 F9000
M204 P800
G1 F1200
G1 X22.184 Y57.622 E.03999
G1 X22.77 Y57.432 E.01931
G1 X23.547 Y57.326 E.02461
G1 X84.938 Y57.326 E1.92486
G1 X85.746 Y57.45 E.02563
G1 X86.27 Y57.621 E.01728
G1 X87.421 Y58.404 E.04365
G1 X87.918 Y59.072 E.0261
G1 X88.272 Y59.88 E.02767
G1 X88.439 Y60.668 E.02526
G1 X88.446 Y60.97 E.00947
G1 X88.773 Y61.007 E.01029
G1 X88.945 Y60.334 E.02177
G1 X89.14 Y59.794 E.01802
G1 X89.399 Y59.248 E.01894
G1 X89.689 Y58.76 E.01779
G1 X90.031 Y58.292 E.01816
G1 X90.37 Y57.906 E.01612
G1 X90.742 Y57.547 E.01621
G1 X91.192 Y57.184 E.01813
G1 X91.681 Y56.861 E.01835
G1 X92.182 Y56.594 E.01781
G1 X92.722 Y56.368 E.01837
G1 X93.282 Y56.194 E.01837
G1 X93.872 Y56.071 E.01891
G1 X94.76 Y55.998 E.02794
G1 X156.084 Y55.998 E1.92276
G1 X156.786 Y56.045 E.02206
G1 X157.397 Y56.152 E.01944
G1 X157.965 Y56.311 E.01851
G1 X158.512 Y56.522 E.01838
G1 X159.036 Y56.784 E.01837
G1 X159.533 Y57.095 E.01836
G1 X159.997 Y57.451 E.01837
G1 X160.426 Y57.85 E.01836
G1 X160.815 Y58.288 E.01837
G1 X161.161 Y58.761 E.01837
G1 X161.46 Y59.264 E.01836
G1 X161.71 Y59.794 E.01837
G1 X161.909 Y60.345 E.01836
G1 X162.054 Y60.913 E.01836
G1 X162.144 Y61.491 E.01836
G1 X162.178 Y62.046 E.01742
G1 X162.179 Y115.036 E1.66148
G1 X162.144 Y115.614 E.01814
G1 X162.053 Y116.194 E.01842
G1 X161.906 Y116.769 E.0186
G1 X161.685 Y117.368 E.02003
G1 X161.355 Y118.023 E.02301
G1 X160.958 Y118.631 E.02275
G1 X160.55 Y119.124 E.02006
G1 X160.114 Y119.553 E.01918
G1 X159.672 Y119.91 E.01782
G1 X159.185 Y120.235 E.01836
G1 X158.652 Y120.519 E.01892
G1 X158.111 Y120.743 E.01836
