; generated by PrusaSlicer 2.4.2+arm64 on 2022-05-17 at 09:28:13 UTC


;
;

;
;
; 

; external perimeters extrusion width = 0.45mm
; perimeters extrusion width = 0.45mm
; infill extrusion width = 0.45mm
; solid infill extrusion width = 0.45mm
; top infill extrusion width = 0.40mm
; first layer extrusion width = 0.42mm

; external perimeters extrusion width = 0.45mm
; perimeters extrusion width = 0.45mm
; infill extrusion width = 0.45mm
; solid infill extrusion width = 0.45mm
; top infill extrusion width = 0.40mm
; first layer extrusion width = 0.42mm

; external perimeters extrusion width = 0.45mm
; perimeters extrusion width = 0.45mm
; infill extrusion width = 0.45mm
; solid infill extrusion width = 0.45mm
; top infill extrusion width = 0.40mm
; first layer extrusion width = 0.42mm

; external perimeters extrusion width = 0.45mm
; perimeters extrusion width = 0.45mm
; infill extrusion width = 0.45mm
; solid infill extrusion width = 0.45mm
; top infill extrusion width = 0.40mm
; first layer extrusion width = 0.42mm

; external perimeters extrusion width = 0.45mm
; perimeters extrusion width = 0.45mm
; infill extrusion width = 0.45mm
; solid infill extrusion width = 0.45mm
; top infill extrusion width = 0.40mm
; first layer extrusion width = 0.42mm

; external perimeters extrusion width = 0.45mm
; perimeters extrusion width = 0.45mm
; infill extrusion width = 0.45mm
; solid infill extrusion width = 0.45mm
; top infill extrusion width = 0.40mm
; first layer extrusion width = 0.42mm

M73 P0 R71
M201 X2500 Y2500 Z400 E5000 ; sets maximum accelerations, mm/sec^2
M203 X180 Y180 Z12 E80 ; sets maximum feedrates, mm / sec
M204 P1250 R1250 T2500 ; sets acceleration (P, T) and retract acceleration (R), mm/sec^2
M205 X8.00 Y8.00 Z2.00 E10.00 ; sets the jerk limits, mm/sec
M205 S0 T0 ; sets the minimum extruding and travel feed rate, mm/sec
M107
;TYPE:Custom
M862.3 P "MINI" ; printer model check
G90 ; use absolute coordinates
M83 ; extruder relative mode
M104 S170 ; set extruder temp for bed leveling
M140 S60 ; set bed temp
M109 R170 ; wait for bed leveling temp
M190 S60 ; wait for bed temp
M204 T1250 ; set travel acceleration
G28 ; home all without mesh bed level
G29 ; mesh bed leveling 
M204 T2500 ; restore travel acceleration
M104 S215 ; set extruder temp
G92 E0
G1 Y-2 X179 F2400
G1 Z3 F720
M109 S215 ; wait for extruder temp

; intro line
G1 X170 F1000
G1 Z0.2 F720
G1 X110 E8 F900
G1 X40 E10 F700
G92 E0

M221 S95 ; set flow
G21 ; set units to millimeters
G90 ; use absolute coordinates
M83 ; use relative distances for extrusion
M900 K0.2 ; Filament gcode LA 1.5
; ; Filament gcode LA 1.0
M107
;LAYER_CHANGE
;Z:0.2
;HEIGHT:0.2
;BEFORE_LAYER_CHANGE
G92 E0.0
;0.2


G1 E-3.2 F4200
G1 Z.2 F720
;AFTER_LAYER_CHANGE
;0.2
G1 Z.4
G1 X62.811 Y73.33 F9000
G1 Z.2 F720
G1 E3.2 F2400
M204 P800
;TYPE:Skirt/Brim
;WIDTH:0.42
G1 F1200
G1 X63.565 Y72.79 E.02907
G1 X64.539 Y72.244 E.03501
G1 X65.668 Y71.786 E.03821
G1 X66.846 Y71.48 E.03816
G1 X68.056 Y71.331 E.03822
G1 X102.518 Y71 E1.08059
G1 X111.384 Y71.011 E.27797
G1 X112.587 Y71.148 E.03797
G1 X113.768 Y71.442 E.03816
G1 X115.506 Y72.201 E.05945
G1 X116.994 Y73.247 E.05705
G1 X118.251 Y74.565 E.05709
G1 X118.894 Y75.501 E.03562
G1 X119.299 Y76.251 E.02671
G1 X119.753 Y77.378 E.03811
G1 X120.071 Y78.63 E.0405
G1 X120.193 Y79.592 E.0304
G1 X120.298 Y81.86 E.07121
G1 X120.325 Y83.479 E.05076
G1 X120.105 Y91.609 E.25501
G1 X119.991 Y92.926 E.04145
G1 X119.71 Y94.218 E.04145
G1 X119.401 Y95.091 E.02903
G1 X118.648 Y96.474 E.04938
G1 X117.952 Y97.405 E.03645
G1 X117.362 Y98.039 E.02716
G1 X116.637 Y98.681 E.03034
G1 X115.862 Y99.224 E.02969
G1 X114.744 Y99.79 E.03928
G1 X113.567 Y100.196 E.03903
G1 X112.484 Y100.431 E.03475
G1 X111.266 Y100.556 E.03839
G1 X80.062 Y101.211 E.9786
G1 X68.347 Y101.202 E.36733
G1 X67.139 Y101.077 E.03806
G1 X66.142 Y100.865 E.03195
G1 X65.254 Y100.584 E.02923
G1 X64.233 Y100.137 E.03494
G1 X63.594 Y99.763 E.02321
G1 X62.604 Y99.007 E.03905
G1 X61.724 Y98.11 E.0394
G1 X60.937 Y97.057 E.04122
G1 X60.349 Y96.016 E.03749
G1 X60.007 Y95.163 E.02881
G1 X59.7 Y93.939 E.03958
G1 X59.562 Y92.971 E.03063
G1 X59.197 Y83.728 E.29004
G1 X59.362 Y79.565 E.13065
G1 X59.512 Y78.644 E.02924
G1 X59.819 Y77.547 E.03573
G1 X60.625 Y75.823 E.05966
G1 X61.27 Y74.883 E.03573
G1 X61.963 Y74.093 E.03296
G1 X62.766 Y73.37 E.03389
M204 P1000
G1 E-2.24 F4200
;WIPE_START
G1 F7200
G1 X63.565 Y72.79 E-.54692
G1 X64.139 Y72.468 E-.36508
;WIPE_END
G1 E-.048 F4200
G1 Z.4 F720
G1 X64.482 Y75.426 F9000
G1 Z.2 F720
G1 E3.2 F2400
M204 P800
G1 F1200
G1 X64.736 Y75.214 E.0104
G1 X65.49 Y74.748 E.0278
G1 X66.252 Y74.403 E.0262
G1 X67.342 Y74.099 E.0355
G1 X68.468 Y73.98 E.03551
G1 X79.798 Y73.987 E.35522
G1 X80.791 Y74.111 E.03139
G1 X81.538 Y74.308 E.02421
G1 X81.784 Y74.404 E.00831
G1 X82.228 Y74.227 E.01497
G1 X83.045 Y74.018 E.02643
G1 X84.059 Y73.907 E.032
G1 X95.437 Y73.906 E.35675
G1 X96.452 Y74.026 E.03204
G1 X97.332 Y74.259 E.02854
G1 X97.992 Y73.989 E.02238
G1 X98.837 Y73.775 E.02734
G1 X99.804 Y73.67 E.03047
G1 X111.249 Y73.671 E.35886
G1 X112.236 Y73.792 E.03118
G1 X113.208 Y74.064 E.03163
G1 X113.832 Y74.329 E.02126
G1 X114.431 Y74.658 E.02143
G1 X115.379 Y75.374 E.03725
G1 X115.903 Y75.905 E.02339
G1 X116.373 Y76.505 E.02389
G1 X116.864 Y77.335 E.03025
G1 X117.329 Y78.568 E.04129
G1 X117.546 Y79.908 E.04257
G1 X117.558 Y81.069 E.03642
G1 X117.638 Y82.015 E.02976
G1 X117.664 Y83.305 E.04044
G1 X117.61 Y84.166 E.02706
G1 X117.352 Y85.425 E.04029
G1 X116.993 Y86.256 E.02838
G1 X117.298 Y87.673 E.04545
G1 X117.354 Y89.469 E.05633
G1 X117.419 Y90.108 E.02016
G1 X117.445 Y91.446 E.04195
G1 X117.324 Y92.707 E.03972
G1 X116.942 Y94.056 E.04394
G1 X116.458 Y94.952 E.03193
G1 X115.863 Y95.748 E.03117
G1 X115.222 Y96.393 E.02852
G1 X114.517 Y96.923 E.02764
G1 X113.174 Y97.531 E.04625
G1 X112.001 Y97.809 E.03778
G1 X111.23 Y97.892 E.02433
G1 X109.784 Y97.889 E.04532
G1 X108.995 Y97.783 E.02498
G1 X107.465 Y97.112 E.05237
G1 X106.21 Y95.908 E.0545
G1 X105.632 Y94.864 E.03743
G1 X105.33 Y93.693 E.03793
G1 X105.312 Y91.831 E.05839
G1 X105.529 Y90.773 E.03386
G1 X105.796 Y90.2 E.01981
G1 X105.617 Y89.796 E.01386
G1 X102.101 Y89.793 E.11025
G1 X102.147 Y90.283 E.01546
G1 X102.172 Y91.639 E.0425
G1 X102.103 Y92.554 E.02878
G1 X101.787 Y93.92 E.04397
G1 X101.234 Y95.049 E.0394
G1 X100.636 Y95.868 E.03181
G1 X99.931 Y96.583 E.03146
G1 X98.952 Y97.263 E.03741
G1 X98.072 Y97.648 E.0301
G1 X97.103 Y97.919 E.03155
G1 X95.838 Y98.071 E.03995
G1 X84.036 Y98.065 E.37004
G1 X82.903 Y97.914 E.03585
G1 X82.454 Y98.113 E.01538
G1 X81.475 Y98.39 E.03191
G1 X80.24 Y98.543 E.03902
G1 X68.242 Y98.529 E.37619
G1 X66.965 Y98.33 E.04054
G1 X65.971 Y98.002 E.03279
G1 X64.99 Y97.491 E.0347
G1 X64.27 Y96.921 E.02879
G1 X63.648 Y96.259 E.02849
G1 X63.08 Y95.458 E.03078
G1 X62.643 Y94.602 E.03013
G1 X62.3 Y93.35 E.04071
G1 X62.185 Y92.23 E.0353
G1 X62.203 Y89.808 E.07597
G1 X62.276 Y89.102 E.02225
G1 X62.318 Y88.408 E.02177
G1 X62.433 Y87.659 E.02377
G1 X62.675 Y86.83 E.02708
G1 X62.293 Y86.094 E.02602
G1 X61.96 Y84.819 E.04131
G1 X61.86 Y83.693 E.03546
G1 X61.884 Y82.331 E.04272
G1 X61.966 Y81.376 E.03004
G1 X61.99 Y80.067 E.04107
G1 X62.124 Y79.172 E.02835
G1 X62.428 Y78.175 E.03271
G1 X62.823 Y77.343 E.02887
G1 X63.33 Y76.573 E.02891
G1 X63.99 Y75.837 E.03098
G1 X64.436 Y75.465 E.01821
M204 P1000
G1 X64.676 Y75.754 F9000
M204 P800
G1 F1200
G1 X64.967 Y75.513 E.01185
G1 X65.677 Y75.075 E.02616
G1 X66.393 Y74.753 E.02462
G1 X67.398 Y74.472 E.0327
G1 X68.478 Y74.357 E.03407
G1 X79.786 Y74.364 E.35454
G1 X80.707 Y74.479 E.02911
G1 X81.43 Y74.669 E.02343
G1 X81.785 Y74.81 E.01198
G1 X82.334 Y74.589 E.01856
G1 X83.125 Y74.386 E.02561
G1 X84.069 Y74.284 E.02978
G1 X95.426 Y74.283 E.35607
G1 X96.395 Y74.399 E.03059
G1 X97.105 Y74.584 E.02302
G1 X97.323 Y74.671 E.00735
G1 X98.098 Y74.352 E.02631
G1 X98.917 Y74.144 E.02649
G1 X99.814 Y74.047 E.02827
G1 X111.237 Y74.048 E.35818
G1 X112.175 Y74.165 E.02964
G1 X113.071 Y74.416 E.02917
G1 X113.675 Y74.673 E.02058
G1 X114.237 Y74.982 E.02011
G1 X115.12 Y75.648 E.03469
G1 X115.626 Y76.162 E.02262
G1 X116.068 Y76.727 E.02249
G1 X116.531 Y77.512 E.02857
G1 X116.969 Y78.682 E.03916
G1 X117.169 Y79.925 E.03949
G1 X117.181 Y81.087 E.03643
G1 X117.261 Y82.029 E.02963
G1 X117.287 Y83.304 E.03999
G1 X117.234 Y84.128 E.0259
G1 X116.987 Y85.329 E.03843
G1 X116.578 Y86.264 E.032
G1 X116.657 Y86.464 E.00675
G1 X116.922 Y87.702 E.03968
G1 X116.977 Y89.494 E.05623
G1 X117.042 Y90.124 E.01986
G1 X117.068 Y91.422 E.04071
G1 X116.957 Y92.623 E.0378
G1 X116.599 Y93.896 E.04147
G1 X116.147 Y94.738 E.02997
G1 X115.585 Y95.493 E.0295
G1 X114.984 Y96.1 E.0268
G1 X114.308 Y96.609 E.02653
G1 X113.036 Y97.18 E.04371
G1 X111.927 Y97.44 E.03571
G1 X111.2 Y97.516 E.02291
G1 X109.798 Y97.512 E.04397
G1 X109.073 Y97.413 E.02296
G1 X107.65 Y96.781 E.04882
G1 X106.494 Y95.659 E.0505
G1 X105.975 Y94.705 E.03406
G1 X105.707 Y93.666 E.03363
G1 X105.689 Y91.848 E.05702
G1 X105.893 Y90.873 E.03121
G1 X106.212 Y90.207 E.02315
G1 X105.862 Y89.419 E.02704
G1 X101.685 Y89.415 E.13099
G1 X101.771 Y90.298 E.02781
G1 X101.795 Y91.637 E.04198
G1 X101.728 Y92.511 E.02748
G1 X101.425 Y93.813 E.04193
G1 X100.904 Y94.866 E.03684
G1 X100.34 Y95.634 E.02986
G1 X99.701 Y96.284 E.02858
G1 X98.783 Y96.926 E.03513
G1 X97.958 Y97.288 E.02826
G1 X97.016 Y97.551 E.03066
G1 X95.805 Y97.695 E.03823
G1 X84.049 Y97.687 E.3686
G1 X82.846 Y97.526 E.03805
G1 X82.338 Y97.754 E.01747
G1 X81.387 Y98.023 E.03101
G1 X80.229 Y98.166 E.03657
G1 X68.285 Y98.154 E.37449
G1 X67.067 Y97.966 E.03865
G1 X66.131 Y97.66 E.03089
G1 X65.209 Y97.184 E.03253
G1 X64.535 Y96.652 E.02692
G1 X63.947 Y96.03 E.02684
G1 X63.41 Y95.274 E.02907
G1 X62.988 Y94.449 E.02907
G1 X62.668 Y93.267 E.03839
G1 X62.562 Y92.223 E.03289
G1 X62.58 Y89.82 E.07536
G1 X62.652 Y89.133 E.02165
G1 X62.693 Y88.44 E.02176
G1 X62.803 Y87.73 E.02254
G1 X63.081 Y86.789 E.03073
G1 X62.652 Y85.977 E.0288
G1 X62.329 Y84.74 E.0401
G1 X62.236 Y83.671 E.03365
G1 X62.261 Y82.344 E.0416
G1 X62.343 Y81.396 E.02985
G1 X62.367 Y80.086 E.04107
G1 X62.495 Y79.243 E.02675
G1 X62.775 Y78.323 E.03015
G1 X63.146 Y77.538 E.02721
G1 X63.621 Y76.814 E.02716
G1 X64.261 Y76.099 E.03009
G1 X64.63 Y75.792 E.01503
M204 P1000
G1 X64.869 Y76.082 F9000
M204 P800
G1 F1200
G1 X65.196 Y75.812 E.0133
G1 X65.864 Y75.403 E.02453
G1 X66.534 Y75.103 E.02304
G1 X67.483 Y74.839 E.03087
G1 X68.488 Y74.734 E.03168
G1 X79.774 Y74.741 E.35387
G1 X80.623 Y74.847 E.02684
G1 X81.322 Y75.031 E.02265
G1 X81.785 Y75.217 E.01567
G1 X82.44 Y74.951 E.02217
G1 X83.206 Y74.755 E.02477
G1 X84.079 Y74.661 E.02756
G1 X95.415 Y74.66 E.35541
G1 X96.312 Y74.767 E.02833
G1 X96.997 Y74.946 E.02219
G1 X97.323 Y75.079 E.01105
G1 X98.205 Y74.714 E.02994
G1 X98.997 Y74.512 E.02563
G1 X99.824 Y74.424 E.02606
G1 X111.226 Y74.425 E.3575
G1 X112.088 Y74.532 E.02724
M73 P1 R71
G1 X112.936 Y74.768 E.02759
G1 X113.502 Y75.008 E.01928
G1 X114.043 Y75.306 E.01938
G1 X114.862 Y75.923 E.03215
G1 X115.336 Y76.403 E.02116
G1 X115.764 Y76.95 E.02176
G1 X116.184 Y77.661 E.0259
G1 X116.6 Y78.761 E.03688
G1 X116.792 Y79.944 E.03755
G1 X116.804 Y81.106 E.03643
G1 X116.885 Y82.043 E.0295
G1 X116.91 Y83.304 E.03955
G1 X116.859 Y84.091 E.02472
G1 X116.622 Y85.232 E.03655
G1 X116.166 Y86.262 E.0353
G1 X116.293 Y86.563 E.01024
G1 X116.545 Y87.731 E.03746
G1 X116.601 Y89.519 E.05611
G1 X116.665 Y90.14 E.01955
G1 X116.691 Y91.419 E.04014
G1 X116.589 Y92.539 E.03524
G1 X116.257 Y93.737 E.03899
G1 X115.836 Y94.524 E.02798
G1 X115.291 Y95.256 E.02862
G1 X114.727 Y95.824 E.0251
G1 X114.099 Y96.294 E.02457
G1 X112.9 Y96.828 E.04117
G1 X111.854 Y97.069 E.03365
G1 X111.172 Y97.14 E.0215
G1 X109.812 Y97.135 E.04263
G1 X109.152 Y97.043 E.02091
G1 X107.836 Y96.451 E.04524
G1 X106.779 Y95.411 E.0465
G1 X106.333 Y94.587 E.02937
G1 X106.084 Y93.638 E.03077
G1 X106.063 Y91.904 E.05435
G1 X106.257 Y90.974 E.0298
G1 X106.631 Y90.212 E.02662
G1 X106.288 Y89.468 E.02568
G1 X106.169 Y89.042 E.01386
G1 X101.316 Y89.038 E.15215
G1 X101.328 Y89.686 E.02034
G1 X101.394 Y90.313 E.01977
G1 X101.418 Y91.634 E.04142
G1 X101.353 Y92.467 E.02618
G1 X101.063 Y93.706 E.0399
G1 X100.59 Y94.656 E.03328
G1 X100.045 Y95.4 E.02892
G1 X99.445 Y96.006 E.02675
G1 X98.613 Y96.588 E.03182
G1 X97.843 Y96.929 E.02641
G1 X96.929 Y97.184 E.02976
G1 X95.772 Y97.319 E.0365
G1 X84.061 Y97.31 E.3672
G1 X83.034 Y97.177 E.03246
G1 X82.826 Y97.121 E.00678
G1 X82.221 Y97.395 E.02081
G1 X81.298 Y97.656 E.03009
G1 X80.218 Y97.789 E.03412
G1 X68.328 Y97.779 E.37281
G1 X67.168 Y97.603 E.03677
G1 X66.289 Y97.318 E.02899
G1 X65.427 Y96.876 E.03036
G1 X64.799 Y96.382 E.02505
G1 X64.246 Y95.799 E.02518
G1 X63.739 Y95.09 E.02734
G1 X63.333 Y94.295 E.02799
G1 X63.036 Y93.185 E.03604
G1 X62.939 Y92.196 E.03114
G1 X62.957 Y89.832 E.07414
G1 X63.027 Y89.164 E.02106
G1 X63.067 Y88.489 E.0212
G1 X63.175 Y87.797 E.02195
G1 X63.368 Y87.105 E.02254
G1 X63.503 Y86.778 E.01109
G1 X63.011 Y85.86 E.03266
G1 X62.698 Y84.661 E.03886
G1 X62.613 Y83.649 E.03182
G1 X62.638 Y82.358 E.04049
G1 X62.719 Y81.416 E.02966
G1 X62.744 Y80.106 E.04107
G1 X62.865 Y79.313 E.02514
G1 X63.122 Y78.471 E.02762
G1 X63.469 Y77.733 E.02556
G1 X63.912 Y77.054 E.0254
G1 X64.532 Y76.361 E.02918
G1 X64.823 Y76.12 E.01183
M204 P1000
G1 X65.062 Y76.411 F9000
M204 P800
G1 F1200
G1 X65.425 Y76.112 E.01475
G1 X66.049 Y75.732 E.0229
G1 X66.674 Y75.453 E.02147
G1 X67.568 Y75.207 E.02905
G1 X68.497 Y75.111 E.0293
G1 X79.762 Y75.118 E.35321
G1 X80.54 Y75.214 E.02456
M73 P1 R70
G1 X81.214 Y75.392 E.02186
G1 X81.786 Y75.625 E.01936
G1 X82.547 Y75.313 E.0258
G1 X83.286 Y75.124 E.02392
G1 X84.089 Y75.038 E.02533
G1 X95.404 Y75.037 E.35475
G1 X96.229 Y75.135 E.02607
G1 X96.888 Y75.307 E.02136
G1 X97.366 Y75.506 E.01623
G1 X97.593 Y75.372 E.00827
G1 X98.311 Y75.076 E.02434
G1 X99.077 Y74.881 E.02478
G1 X99.833 Y74.801 E.02386
G1 X111.214 Y74.802 E.35682
G1 X112.027 Y74.904 E.0257
G1 X112.8 Y75.12 E.02516
G1 X113.345 Y75.351 E.01858
G1 X113.849 Y75.629 E.01804
G1 X114.603 Y76.198 E.02962
G1 X115.06 Y76.66 E.02037
G1 X115.458 Y77.172 E.02034
G1 X115.851 Y77.838 E.02424
G1 X116.24 Y78.876 E.03476
G1 X116.415 Y79.961 E.03447
G1 X116.427 Y81.124 E.03645
G1 X116.508 Y82.057 E.02936
G1 X116.533 Y83.303 E.03909
G1 X116.484 Y84.052 E.02354
G1 X116.257 Y85.135 E.0347
G1 X115.893 Y85.962 E.02831
G1 X115.73 Y86.205 E.00919
G1 X115.928 Y86.663 E.01564
G1 X116.169 Y87.76 E.03521
G1 X116.224 Y89.545 E.056
G1 X116.288 Y90.155 E.01924
G1 X116.314 Y91.417 E.03956
G1 X116.22 Y92.456 E.03271
G1 X115.914 Y93.579 E.03651
G1 X115.525 Y94.311 E.02599
G1 X115.013 Y95.001 E.02692
G1 X114.49 Y95.531 E.02336
G1 X113.891 Y95.979 E.02344
G1 X112.765 Y96.475 E.03859
G1 X111.782 Y96.699 E.0316
G1 X111.144 Y96.764 E.0201
G1 X109.827 Y96.758 E.0413
G1 X109.232 Y96.674 E.01884
G1 X108.024 Y96.123 E.04163
G1 X107.067 Y95.165 E.04246
G1 X106.677 Y94.43 E.02609
G1 X106.46 Y93.609 E.02662
G1 X106.436 Y91.961 E.05168
G1 X106.621 Y91.076 E.02835
G1 X107.038 Y90.242 E.02924
G1 X107.038 Y90.109 E.00417
G1 X106.924 Y89.947 E.0062
G1 X106.637 Y89.325 E.02146
G1 X106.459 Y88.666 E.02143
G1 X100.932 Y88.66 E.17328
G1 X100.952 Y89.71 E.03291
G1 X101.017 Y90.329 E.01952
G1 X101.041 Y91.632 E.04088
G1 X100.979 Y92.423 E.02486
G1 X100.701 Y93.597 E.03783
G1 X100.261 Y94.472 E.0307
G1 X99.75 Y95.164 E.02699
G1 X99.19 Y95.728 E.02493
G1 X98.413 Y96.268 E.02964
G1 X97.728 Y96.569 E.02348
G1 X96.869 Y96.812 E.02797
G1 X95.761 Y96.942 E.03498
G1 X84.074 Y96.933 E.36645
G1 X83.098 Y96.805 E.03085
G1 X82.795 Y96.719 E.00987
G1 X82.104 Y97.036 E.02384
G1 X81.209 Y97.29 E.02917
G1 X80.207 Y97.411 E.03167
G1 X68.369 Y97.404 E.37114
G1 X67.269 Y97.239 E.0349
G1 X66.446 Y96.974 E.0271
G1 X65.644 Y96.567 E.02819
G1 X65.062 Y96.112 E.02317
G1 X64.545 Y95.568 E.02353
G1 X64.068 Y94.906 E.02559
G1 X63.678 Y94.142 E.02689
G1 X63.405 Y93.104 E.03366
G1 X63.315 Y92.17 E.02941
G1 X63.334 Y89.844 E.07293
G1 X63.403 Y89.195 E.02047
G1 X63.443 Y88.52 E.0212
G1 X63.545 Y87.867 E.02074
G1 X63.728 Y87.219 E.02111
G1 X63.921 Y86.756 E.01571
G1 X63.37 Y85.742 E.0362
